static/assets/img/icons/theme/design/eraser.svg

<svg height="24" viewBox="0 0 24 24" width="24" xmlns="http://www.w3.org/2000/svg"><g fill="none" fill-rule="evenodd"><path d="m0 0h24v24h-24z" opacity="0"/><path d="m6 9v6h4v-6zm.25-2h13.5c1.2426407 0 2.25.81402773 2.25 1.81818182v6.36363638c0 1.0041541-1.0073593 1.8181818-2.25 1.8181818h-13.5c-1.24264069 0-2.25-.8140277-2.25-1.8181818v-6.36363638c0-1.00415409 1.00735931-1.81818182 2.25-1.81818182z" fill="#000" fill-rule="nonzero" transform="matrix(.70710678 -.70710678 .70710678 .70710678 -4.67767 12.707107)"/></g></svg>

<svg width="24px" height="24px" viewBox="0 0 24 24" version="1.1" xmlns="http://www.w3.org/2000/svg" xmlns:xlink="http://www.w3.org/1999/xlink">
    <title>Icon For Eraser</title>
    <g stroke="none" stroke-width="1" fill="none" fill-rule="evenodd">
        <rect opacity="0" x="0" y="0" width="24" height="24"></rect>
        <path d="M6,9 L6,15 L10,15 L10,9 L6,9 Z M6.25,7 L19.75,7 C20.9926407,7 22,7.81402773 22,8.81818182 L22,15.1818182 C22,16.1859723 20.9926407,17 19.75,17 L6.25,17 C5.00735931,17 4,16.1859723 4,15.1818182 L4,8.81818182 C4,7.81402773 5.00735931,7 6.25,7 Z" fill="#000000" fill-rule="nonzero" transform="translate(13.000000, 12.000000) rotate(-45.000000) translate(-13.000000, -12.000000) "></path>
    </g>
</svg>
